assets/pet.svg

<svg width="60" height="59" viewBox="0 0 60 59" fill="none" xmlns="http://www.w3.org/2000/svg" xmlns:xlink="http://www.w3.org/1999/xlink">
<g clip-path="url(#clip0_305_72)">
<g filter="url(#filter0_iiii_305_72)">
<path d="M37.8201 57.3188L40.5108 56.2792L41.7338 55.7289L42.8957 55.1785L37.9424 43.3149L32.8667 31.2678L20.4527 56.8296L21.6758 57.3188L23.2658 57.6857L24.7334 57.9915L26.1399 58.175L27.5464 58.2973L29.0753 58.3584H30.4818L31.9494 58.2973L33.4782 58.175L34.8848 57.9303L37.8201 57.3188Z" fill="#5CECFF"/>
<path d="M11.7691 52.0597L28.0968 21.1165L25.4061 14.9401L24.55 13.2278L23.755 11.7602L23.2046 10.8429L22.7154 10.1702L21.6758 8.94714L20.3916 8.21331L18.9851 7.66294L17.3951 7.35717H16.1109L14.7961 7.4489L13.4814 7.54063L12.0137 7.78524L10.7906 8.21331L9.75105 8.94714L8.77261 9.80328L7.79417 10.8429L6.63227 12.3105L5.34806 14.3897L3.8804 17.0804L2.47389 20.1992L1.49545 23.9907L1.06738 27.5987V31.2678L1.31199 34.142L1.92352 37.0162L2.77965 39.768L4.06386 42.7034L5.65383 45.3329L7.3661 47.6567L9.26183 49.8582L10.4849 51.1424L11.7691 52.0597Z" fill="#5CECFF"/>
<path d="M53.414 13.4113L50.6621 9.86443L47.1153 6.74565L43.3238 4.23839L38.7374 2.28151L36.1078 1.60883L33.784 1.18076L31.2768 0.875H28.953L26.3234 1.18076L24.0607 1.60883L25.8953 2.1592L27.6076 2.89303L29.1364 3.87148L30.6041 5.03337L31.8271 6.31758L33.0502 7.84639L34.0286 9.31405L34.8848 10.8429L35.7409 12.4328L36.5359 14.2063L38.0035 17.4473L40.6942 23.9295L46.0757 36.4046L51.3348 48.6963L52.9859 46.556L54.1478 44.9049L56.1047 41.4803L57.5724 37.4442L58.3673 33.2247L58.7343 29.1275L58.1839 25.0303L57.2054 20.8719L56.4716 18.7927L55.6155 16.9581L54.5147 15.0624L53.414 13.4113Z" fill="#5CECFF"/>
</g>
<path d="M37.8201 57.3188L40.5108 56.2792L41.7338 55.7289L42.8957 55.1785L37.9424 43.3149L32.8667 31.2678L20.4527 56.8296L21.6758 57.3188L23.2658 57.6857L24.7334 57.9915L26.1399 58.175L27.5464 58.2973L29.0753 58.3584H30.4818L31.9494 58.2973L33.4782 58.175L34.8848 57.9303L37.8201 57.3188Z" stroke="#5CECFF" stroke-width="1.25428" stroke-linejoin="round"/>
<path d="M11.7691 52.0597L28.0968 21.1165L25.4061 14.9401L24.55 13.2278L23.755 11.7602L23.2046 10.8429L22.7154 10.1702L21.6758 8.94714L20.3916 8.21331L18.9851 7.66294L17.3951 7.35717H16.1109L14.7961 7.4489L13.4814 7.54063L12.0137 7.78524L10.7906 8.21331L9.75105 8.94714L8.77261 9.80328L7.79417 10.8429L6.63227 12.3105L5.34806 14.3897L3.8804 17.0804L2.47389 20.1992L1.49545 23.9907L1.06738 27.5987V31.2678L1.31199 34.142L1.92352 37.0162L2.77965 39.768L4.06386 42.7034L5.65383 45.3329L7.3661 47.6567L9.26183 49.8582L10.4849 51.1424L11.7691 52.0597Z" stroke="#5CECFF" stroke-width="1.25428" stroke-linejoin="round"/>
<path d="M53.414 13.4113L50.6621 9.86443L47.1153 6.74565L43.3238 4.23839L38.7374 2.28151L36.1078 1.60883L33.784 1.18076L31.2768 0.875H28.953L26.3234 1.18076L24.0607 1.60883L25.8953 2.1592L27.6076 2.89303L29.1364 3.87148L30.6041 5.03337L31.8271 6.31758L33.0502 7.84639L34.0286 9.31405L34.8848 10.8429L35.7409 12.4328L36.5359 14.2063L38.0035 17.4473L40.6942 23.9295L46.0757 36.4046L51.3348 48.6963L52.9859 46.556L54.1478 44.9049L56.1047 41.4803L57.5724 37.4442L58.3673 33.2247L58.7343 29.1275L58.1839 25.0303L57.2054 20.8719L56.4716 18.7927L55.6155 16.9581L54.5147 15.0624L53.414 13.4113Z" stroke="#5CECFF" stroke-width="1.25428" stroke-linejoin="round"/>
<g style="mix-blend-mode:darken">
<rect x="-882" y="-35" width="1440" height="128" fill="url(#pattern0)"/>
</g>
</g>
<defs>
<filter id="filter0_iiii_305_72" x="-0.0612842" y="-0.25385" width="59.9243" height="59.7411" filterUnits="userSpaceOnUse" color-interpolation-filters="sRGB">
<feFlood flood-opacity="0" result="BackgroundImageFix"/>
<feBlend mode="normal" in="SourceGraphic" in2="BackgroundImageFix" result="shape"/>
<feColorMatrix in="SourceAlpha" type="matrix" values="0 0 0 0 0 0 0 0 0 0 0 0 0 0 0 0 0 0 127 0" result="hardAlpha"/>
<feOffset dx="-0.501714"/>
<feGaussianBlur stdDeviation="0.250857"/>
<feComposite in2="hardAlpha" operator="arithmetic" k2="-1" k3="1"/>
<feColorMatrix type="matrix" values="0 0 0 0 0 0 0 0 0 0 0 0 0 0 0 0 0 0 0.25 0"/>
<feBlend mode="normal" in2="shape" result="effect1_innerShadow_305_72"/>
<feColorMatrix in="SourceAlpha" type="matrix" values="0 0 0 0 0 0 0 0 0 0 0 0 0 0 0 0 0 0 127 0" result="hardAlpha"/>
<feOffset dy="-0.501714"/>
<feGaussianBlur stdDeviation="0.250857"/>
<feComposite in2="hardAlpha" operator="arithmetic" k2="-1" k3="1"/>
<feColorMatrix type="matrix" values="0 0 0 0 0 0 0 0 0 0 0 0 0 0 0 0 0 0 0.25 0"/>
<feBlend mode="normal" in2="effect1_innerShadow_305_72" result="effect2_innerShadow_305_72"/>
<feColorMatrix in="SourceAlpha" type="matrix" values="0 0 0 0 0 0 0 0 0 0 0 0 0 0 0 0 0 0 127 0" result="hardAlpha"/>
<feOffset dx="0.501714"/>
<feGaussianBlur stdDeviation="0.250857"/>
<feComposite in2="hardAlpha" operator="arithmetic" k2="-1" k3="1"/>
<feColorMatrix type="matrix" values="0 0 0 0 0 0 0 0 0 0 0 0 0 0 0 0 0 0 0.25 0"/>
<feBlend mode="normal" in2="effect2_innerShadow_305_72" result="effect3_innerShadow_305_72"/>
<feColorMatrix in="SourceAlpha" type="matrix" values="0 0 0 0 0 0 0 0 0 0 0 0 0 0 0 0 0 0 127 0" result="hardAlpha"/>
<feOffset dy="0.501714"/>
<feGaussianBlur stdDeviation="0.250857"/>
<feComposite in2="hardAlpha" operator="arithmetic" k2="-1" k3="1"/>
<feColorMatrix type="matrix" values="0 0 0 0 0 0 0 0 0 0 0 0 0 0 0 0 0 0 0.25 0"/>
<feBlend mode="normal" in2="effect3_innerShadow_305_72" result="effect4_innerShadow_305_72"/>
</filter>
<pattern id="pattern0" patternContentUnits="objectBoundingBox" width="0.00208333" height="0.0234375">
<use xlink:href="#image0_305_72" transform="scale(4.16667e-05 0.00046875)"/>
</pattern>
<clipPath id="clip0_305_72">
<rect width="60" height="59" fill="white"/>
</clipPath>
<image id="image0_305_72" width="50" height="50" xlink:href="data:image/png;base64,iVBORw0KGgoAAAANSUhEUgAAADIAAAAyCAYAAAAeP4ixAAAABHNCSVQICAgIfAhkiAAAAg1JREFUaEPdmjtOw0AQhu3QRWlTu06FRMsdKGigp+cGXINLcAbKtClACi200FBRICSYz/JatlnbydrZeGakURxnH//n3exj1mmSJL/iY9iLFLIW34hz/Sb+If5VFD6Xz6V4Jr4SPxM/L66LJMM+AAn1J8l7J346QAJ5KYOyQnXkjRGS+VHyXQ8Q35aVMik7RNNemZ6lkps2FSPepw7q2gdo58T3UjD9O5ZRF3XuCtOb8F0Ku42l3lMPdaOhD6gzwVYKuPIUHvsWGtDSBdP6IxkvYyvuqA8tXTBeEJpyCi3R5EJTWzfzghzzP9EU3/yONl8X+3eTkWLq5hvNaiCM3TGH2NAHhsbmPFMDiTHZhYpv5kNrtYuVX1gaaLPqcqYEOcTa6dAPBs2uVfILVp5aLV81zwr1D1opRHepnRYZsp849jNAOwz5tK/dtnQttqfabQ0Ie2zttjkRgoX4q3KSBSCp+KdykBSQH/Fv5SAwJG4u0cwyswCRNwAgRAC12xwQwpjabQmIho1U34POACGgrN1WgBAV1245g4lFIyAmlvFuHrlQ3LdK7Sa2uq5rAWMi+ACImXAQMCYCdICYCZkCYyKIDQhu4lgBEDMHPcCYOHpzXQyYKRzBDToMdTAmjqcdjBvNMmmhWEZdviO2qqbqde3Upy2Ru2/iFY4qpPqXapotNpnXnAiXIm4MO+qLZ38bltSbrt1m9AAAAABJRU5ErkJggg=="/>
</defs>
</svg>

<svg xmlns="http://www.w3.org/2000/svg" xmlns:xlink="http://www.w3.org/1999/xlink" width="60" height="59" fill="none"><g clip-path="url(#a)"><g fill="#5CECFF" filter="url(#b)"><path d="m37.82 57.319 2.69-1.04 1.224-.55 1.162-.55-4.954-11.864-5.075-12.047L20.453 56.83l1.223.489 1.59.367 1.467.306 1.407.183 1.406.122 1.53.061h1.406l1.467-.06 1.53-.123 1.406-.245 2.935-.611ZM11.77 52.06l16.327-30.944-2.69-6.176-.857-1.712-.795-1.468-.55-.917-.49-.673-1.04-1.223-1.283-.734-1.407-.55-1.59-.306h-1.284l-1.315.092-1.315.092-1.467.244-1.223.428-1.04.734-.978.856-.979 1.04-1.162 1.467-1.284 2.08-1.468 2.69-1.406 3.12-.979 3.79-.428 3.609v3.669l.245 2.874.612 2.874.856 2.752 1.284 2.935 1.59 2.63 1.712 2.324 1.896 2.201 1.223 1.284 1.284.918ZM53.414 13.411l-2.752-3.547-3.547-3.118-3.791-2.508-4.587-1.956-2.63-.673-2.323-.428-2.507-.306h-2.324l-2.63.306-2.262.428 1.834.55 1.713.734 1.528.978 1.468 1.162 1.223 1.285 1.223 1.528.979 1.468.856 1.529.856 1.59.795 1.773 1.468 3.241 2.69 6.483 5.382 12.475 5.259 12.291 1.65-2.14 1.163-1.651 1.957-3.425 1.467-4.036.795-4.22.367-4.096-.55-4.098-.979-4.158-.733-2.08-.857-1.834-1.1-1.896-1.101-1.65Z"/></g><path stroke="#5CECFF" stroke-linejoin="round" stroke-width="1.254" d="m37.82 57.319 2.69-1.04 1.224-.55 1.162-.55-4.954-11.864-5.075-12.047L20.453 56.83l1.223.489 1.59.367 1.467.306 1.407.183 1.406.122 1.53.061h1.406l1.467-.06 1.53-.123 1.406-.245 2.935-.611ZM11.77 52.06l16.327-30.944-2.69-6.176-.857-1.712-.795-1.468-.55-.917-.49-.673-1.04-1.223-1.283-.734-1.407-.55-1.59-.306h-1.284l-1.315.092-1.315.092-1.467.244-1.223.428-1.04.734-.978.856-.979 1.04-1.162 1.467-1.284 2.08-1.468 2.69-1.406 3.12-.979 3.79-.428 3.609v3.669l.245 2.874.612 2.874.856 2.752 1.284 2.935 1.59 2.63 1.712 2.324 1.896 2.201 1.223 1.284 1.284.918ZM53.414 13.411l-2.752-3.547-3.547-3.118-3.791-2.508-4.587-1.956-2.63-.673-2.323-.428-2.507-.306h-2.324l-2.63.306-2.262.428 1.834.55 1.713.734 1.528.978 1.468 1.162 1.223 1.285 1.223 1.528.979 1.468.856 1.529.856 1.59.795 1.773 1.468 3.241 2.69 6.483 5.382 12.475 5.259 12.291 1.65-2.14 1.163-1.651 1.957-3.425 1.467-4.036.795-4.22.367-4.096-.55-4.098-.979-4.158-.733-2.08-.857-1.834-1.1-1.896-1.101-1.65Z"/><path fill="url(#c)" d="M-882-35H558V93H-882z" style="mix-blend-mode:darken"/></g><defs><clipPath id="a"><path fill="#fff" d="M0 0h60v59H0z"/></clipPath><pattern id="c" width=".002" height=".023" patternContentUnits="objectBoundingBox"><use xlink:href="#d" transform="scale(.00004 .00047)"/></pattern><filter id="b" width="59.924" height="59.741" x="-.061" y="-.254" color-interpolation-filters="sRGB" filterUnits="userSpaceOnUse"><feFlood flood-opacity="0" result="BackgroundImageFix"/><feBlend in="SourceGraphic" in2="BackgroundImageFix" result="shape"/><feColorMatrix in="SourceAlpha" result="hardAlpha" values="0 0 0 0 0 0 0 0 0 0 0 0 0 0 0 0 0 0 127 0"/><feOffset dx="-.502"/><feGaussianBlur stdDeviation=".251"/><feComposite in2="hardAlpha" k2="-1" k3="1" operator="arithmetic"/><feColorMatrix values="0 0 0 0 0 0 0 0 0 0 0 0 0 0 0 0 0 0 0.25 0"/><feBlend in2="shape" result="effect1_innerShadow_305_72"/><feColorMatrix in="SourceAlpha" result="hardAlpha" values="0 0 0 0 0 0 0 0 0 0 0 0 0 0 0 0 0 0 127 0"/><feOffset dy="-.502"/><feGaussianBlur stdDeviation=".251"/><feComposite in2="hardAlpha" k2="-1" k3="1" operator="arithmetic"/><feColorMatrix values="0 0 0 0 0 0 0 0 0 0 0 0 0 0 0 0 0 0 0.25 0"/><feBlend in2="effect1_innerShadow_305_72" result="effect2_innerShadow_305_72"/><feColorMatrix in="SourceAlpha" result="hardAlpha" values="0 0 0 0 0 0 0 0 0 0 0 0 0 0 0 0 0 0 127 0"/><feOffset dx=".502"/><feGaussianBlur stdDeviation=".251"/><feComposite in2="hardAlpha" k2="-1" k3="1" operator="arithmetic"/><feColorMatrix values="0 0 0 0 0 0 0 0 0 0 0 0 0 0 0 0 0 0 0.25 0"/><feBlend in2="effect2_innerShadow_305_72" result="effect3_innerShadow_305_72"/><feColorMatrix in="SourceAlpha" result="hardAlpha" values="0 0 0 0 0 0 0 0 0 0 0 0 0 0 0 0 0 0 127 0"/><feOffset dy=".502"/><feGaussianBlur stdDeviation=".251"/><feComposite in2="hardAlpha" k2="-1" k3="1" operator="arithmetic"/><feColorMatrix values="0 0 0 0 0 0 0 0 0 0 0 0 0 0 0 0 0 0 0.25 0"/><feBlend in2="effect3_innerShadow_305_72" result="effect4_innerShadow_305_72"/></filter><image xlink:href="data:image/png;base64,iVBORw0KGgoAAAANSUhEUgAAADIAAAAyCAYAAAAeP4ixAAAABHNCSVQICAgIfAhkiAAAAg1JREFUaEPdmjtOw0AQhu3QRWlTu06FRMsdKGigp+cGXINLcAbKtClACi200FBRICSYz/JatlnbydrZeGakURxnH//n3exj1mmSJL/iY9iLFLIW34hz/Sb+If5VFD6Xz6V4Jr4SPxM/L66LJMM+AAn1J8l7J346QAJ5KYOyQnXkjRGS+VHyXQ8Q35aVMik7RNNemZ6lkps2FSPepw7q2gdo58T3UjD9O5ZRF3XuCtOb8F0Ku42l3lMPdaOhD6gzwVYKuPIUHvsWGtDSBdP6IxkvYyvuqA8tXTBeEJpyCi3R5EJTWzfzghzzP9EU3/yONl8X+3eTkWLq5hvNaiCM3TGH2NAHhsbmPFMDiTHZhYpv5kNrtYuVX1gaaLPqcqYEOcTa6dAPBs2uVfILVp5aLV81zwr1D1opRHepnRYZsp849jNAOwz5tK/dtnQttqfabQ0Ie2zttjkRgoX4q3KSBSCp+KdykBSQH/Fv5SAwJG4u0cwyswCRNwAgRAC12xwQwpjabQmIho1U34POACGgrN1WgBAV1245g4lFIyAmlvFuHrlQ3LdK7Sa2uq5rAWMi+ACImXAQMCYCdICYCZkCYyKIDQhu4lgBEDMHPcCYOHpzXQyYKRzBDToMdTAmjqcdjBvNMmmhWEZdviO2qqbqde3Upy2Ru2/iFY4qpPqXapotNpnXnAiXIm4MO+qLZ38bltSbrt1m9AAAAABJRU5ErkJggg==" id="d" width="50" height="50"/></defs></svg>
